Sources/FrostedUI/Resources/Icons.xcassets/beakerFilled32.imageset/beaker-filled-32.svg

<svg width="32" height="32" viewBox="0 0 32 32" fill="none" xmlns="http://www.w3.org/2000/svg" data-fui-icon="true">
  <path
    d="M23.2498 2C23.6638 2.00015 23.9997 2.33591 23.9998 2.75C23.9998 3.16412 23.6638 3.49985 23.2498 3.5H20.9998V12.4619C20.9998 12.8688 21.1296 13.2654 21.3699 13.5938L29.4001 24.5654C31.052 26.8225 29.4402 29.9997 26.6433 30H5.3562C2.55949 29.9997 0.946918 26.8224 2.59839 24.5654L10.6296 13.5938C10.87 13.2653 10.9997 12.8689 10.9998 12.4619V3.5H8.74976C8.33575 3.49975 7.99976 3.16406 7.99976 2.75C7.9998 2.33598 8.33578 2.00025 8.74976 2H23.2498ZM11.6111 20.3271C10.2787 20.0883 8.7653 20.2293 6.87378 21.2627L3.80933 25.4512C2.88282 26.7172 3.7874 28.4997 5.3562 28.5H26.6433C28.2122 28.4997 29.1159 26.7173 28.1892 25.4512L25.4451 21.7021C23.5119 23.0284 21.8128 23.5015 20.2234 23.4316C18.5049 23.356 17.0158 22.6462 15.6619 21.9609C14.2665 21.2547 13.0179 20.5795 11.6111 20.3271Z"
    fill="currentColor"
  />
</svg>

<svg xmlns="http://www.w3.org/2000/svg" width="32" height="32" fill="none" data-fui-icon="true" viewBox="0 0 32 32"><path fill="currentColor" d="M23.25 2a.75.75 0 0 1 0 1.5H21v8.962c0 .407.13.803.37 1.132l8.03 10.971c1.652 2.258.04 5.435-2.757 5.435H5.356c-2.797 0-4.41-3.178-2.758-5.435l8.032-10.971c.24-.329.37-.725.37-1.132V3.5H8.75a.75.75 0 0 1 0-1.5zM11.61 20.327c-1.332-.239-2.846-.098-4.737.936L3.809 25.45c-.926 1.266-.022 3.049 1.547 3.049h21.287c1.57 0 2.473-1.783 1.546-3.049l-2.744-3.749c-1.933 1.326-3.632 1.8-5.222 1.73-1.718-.076-3.207-.786-4.561-1.471-1.396-.706-2.644-1.381-4.05-1.634"/></svg>
